X:1
T:Title
%%score { ( 1 4 ) | ( 2 3 ) }
L:1/8
Q:1/4=100
M:6/8
K:F
V:1 treble nm="Grand Piano"
V:4 treble 
V:2 treble 
V:3 treble 
V:1
 A2 A A2 A | BA_A =A2 F | E2 F G2 G | F2 G A3 | A2 A A2 A | BA_A =A2 F | F2 F [FA]2 [FA] | %7
w: E.~L.~Ashford * * *|||||||
 E-[EA]G F3 | [Ac]3 [Ac][GB][FA] | [FA]2 [EG] [EG]3 | [EG]3 [EG][FA][GB] | [GB]2 A A3 | %12
w: |||||
 A3 AG[A,CF] | [B,DF]2 [B,DF][K:bass] [F,B,D]2 [F,B,D] | %14
w: ||
[M:7/8] [F,A,C][K:treble][CF][CFA] [CFA]3 [B,CG] |[M:3/4] [A,CF]6 |] %16
w: ||
V:2
 F2 F [F,CF]2 [F,CF] | DC[K:bass][F,=B,F] [F,CF]2 [F,A,C] | [C,G,C]2 [C,A,C] [C,B,C]2 [C,B,C] | %3
 [F,A,C]2 [F,B,C][K:treble] [F,CF]3 | [F,CF]2 [F,CF] [F,CF]2 [F,CF] | %5
 DC[K:bass][F,=B,F] [F,CF]2 [F,A,C] | [D,A,D]2 [D,A,D] [C,C]2 [C,C] | z C[C,B,C] [F,A,C]3 | %8
 [F,C]3 [F,C]2 [F,C] | [C,C]2 [C,C] [C,C]3 | [C,C]3 [C,C]2 [C,C] | [F,C]2 [F,CF] [F,CF]3 | z3 .C3 | %13
 B,,2 B,, B,,2 B,, |[M:7/8] z A,C, C,3 C, |[M:3/4] F,6 |] %16
V:3
 [F,C]3 z3 | .[F,F]3[K:bass] z3 | x6 | x3[K:treble] x3 | x6 | .[F,F]3[K:bass] z3 | x6 | .C,3 z3 | %8
 x6 | x6 | x6 | x6 | [F,CF]3 [F,F]-[F,B,F]F, | x6 |[M:7/8] C,2 z z z z2 |[M:3/4] x6 |] %16
V:4
 x6 | x6 | x6 | x6 | x6 | x6 | x6 | .[B,G]3 z3 | x6 | x6 | x6 | x6 | x6 | x3[K:bass] x3 | %14
[M:7/8] x[K:treble] x6 |[M:3/4] x6 |] %16

